icons/svg/seamark/building_harbour_master.svg

<?xml version="1.0" encoding="UTF-8" standalone="no"?>
<svg
   xmlns:dc="http://purl.org/dc/elements/1.1/"
   xmlns:cc="http://creativecommons.org/ns#"
   xmlns:rdf="http://www.w3.org/1999/02/22-rdf-syntax-ns#"
   xmlns:svg="http://www.w3.org/2000/svg"
   xmlns="http://www.w3.org/2000/svg"
   xmlns:sodipodi="http://sodipodi.sourceforge.net/DTD/sodipodi-0.dtd"
   xmlns:inkscape="http://www.inkscape.org/namespaces/inkscape"
   width="580"
   height="580"
   id="svg2"
   version="1.1"
   inkscape:version="0.48.4 r9939"
   sodipodi:docname="building_harbour_master.svg">
  <defs
     id="defs13">
    <inkscape:path-effect
       effect="gears"
       id="path-effect3774"
       is_visible="true"
       teeth="6"
       phi="-1.2" />
    <inkscape:path-effect
       effect="bend_path"
       id="path-effect3772"
       is_visible="false"
       bendpath="m 95.790098,316.51174 c 144.429032,-206.42506 223.313032,-11.7428 339.548092,0"
       prop_scale="1.19"
       scale_y_rel="false"
       vertical="false"
       bendpath-nodetypes="cc" />
  </defs>
  <sodipodi:namedview
     pagecolor="#ffffff"
     bordercolor="#666666"
     borderopacity="1"
     objecttolerance="10"
     gridtolerance="10"
     guidetolerance="10"
     inkscape:pageopacity="0"
     inkscape:pageshadow="2"
     inkscape:window-width="1326"
     inkscape:window-height="739"
     id="namedview11"
     showgrid="false"
     inkscape:zoom="0.5754386"
     inkscape:cx="182.74106"
     inkscape:cy="296.69762"
     inkscape:window-x="40"
     inkscape:window-y="1024"
     inkscape:window-maximized="1"
     inkscape:current-layer="svg2"
     inkscape:snap-object-midpoints="true"
     inkscape:snap-page="true" />
  <metadata
     id="metadata2975">image/svg+xmlen<rdf:RDF>
  <cc:Work
     rdf:about="">
    <dc:format>image/svg+xml</dc:format>
    <dc:type
       rdf:resource="http://purl.org/dc/dcmitype/StillImage" />
    <dc:title />
  </cc:Work>
</rdf:RDF>
</metadata>
  <path
     sodipodi:type="arc"
     style="color:#000000;fill:#fefefe;stroke:none;stroke-width:26.05776978000000099;stroke-linecap:round;stroke-linejoin:miter;stroke-miterlimit:4;stroke-opacity:1;stroke-dasharray:none;stroke-dashoffset:0;marker:none;visibility:visible;display:inline;overflow:visible;enable-background:accumulate;fill-opacity:1;opacity:0.6173913"
     sodipodi:cx="252.52119"
     sodipodi:cy="231.63135"
     sodipodi:rx="284.15234"
     sodipodi:ry="284.15234"
     d="m 536.67354,231.63135 a 284.15234,284.15234 0 1 1 -568.304689,0 284.15234,284.15234 0 1 1 568.304689,0 z"
     transform="matrix(0.66745766,0,0,0.88637604,121.4528,84.687526)"
     id="path2987-2" />
  <path
     sodipodi:type="arc"
     style="color:#000000;fill:none;stroke:#124dc8;stroke-width:35.15852499;stroke-linecap:round;stroke-linejoin:miter;stroke-miterlimit:4;stroke-opacity:1;stroke-dasharray:none;stroke-dashoffset:0;marker:none;visibility:visible;display:inline;overflow:visible;enable-background:accumulate"
     id="path2987"
     sodipodi:cx="252.52119"
     sodipodi:cy="231.63135"
     sodipodi:rx="284.15234"
     sodipodi:ry="284.15234"
     d="m 536.67354,231.63135 a 284.15234,284.15234 0 1 1 -568.304689,0 284.15234,284.15234 0 1 1 568.304689,0 z"
     transform="matrix(0.66745766,0,0,0.88637604,121.4528,84.687524)" />
  <path
     style="font-size:medium;font-style:normal;font-variant:normal;font-weight:normal;font-stretch:normal;text-indent:0;text-align:start;text-decoration:none;line-height:normal;letter-spacing:normal;word-spacing:normal;text-transform:none;direction:ltr;block-progression:tb;writing-mode:lr-tb;text-anchor:start;baseline-shift:baseline;color:#000000;fill:#000000;fill-opacity:1;stroke:none;stroke-width:2;marker:none;visibility:visible;display:inline;overflow:visible;enable-background:accumulate;font-family:Sans;-inkscape-font-specification:Sans"
     d="m 289.99999,81.276649 c -28.89412,0 -52.59947,23.705341 -52.59947,52.599461 0,28.89413 23.70535,52.59947 52.59947,52.59947 28.89412,0 52.59946,-23.70534 52.59946,-52.59947 0,-28.89412 -23.70534,-52.599461 -52.59946,-52.599461 z m 0,26.299731 c 14.68069,0 26.29973,11.61904 26.29973,26.29973 0,14.6807 -11.61904,26.29973 -26.29973,26.29973 -14.6807,0 -26.29973,-11.61903 -26.29973,-26.29973 0,-14.68069 11.61903,-26.29973 26.29973,-26.29973 z"
     id="circle3"
     inkscape:connector-curvature="0" />
  <path
     style="fill:#000000;fill-opacity:1"
     inkscape:connector-curvature="0"
     d="m 358.62878,356.5309 c 0,0 21.88586,-39.00249 51.15672,-48.85175 18.71009,26.81257 20.1634,58.8325 20.1634,74.61234 0,0 -17.3106,-8.06087 -30.95024,-30.1395 -10.60382,7.29819 -40.36988,4.37891 -40.36988,4.37891 z"
     id="path5-5" />
  <path
     style="fill:#000000;fill-opacity:1"
     inkscape:connector-curvature="0"
     d="m 221.37122,356.5309 c 0,0 -20.84163,-38.35816 -50.11247,-48.2074 -18.27948,19.29085 -21.20765,73.96799 -21.20765,73.96799 0,0 17.94576,-10.87493 30.95024,-30.1395 10.60382,7.29819 40.36988,4.37891 40.36988,4.37891 z"
     id="path7" />
  <path
     style="fill:#000000;fill-opacity:1"
     inkscape:connector-curvature="0"
     d="m 386.48939,327.02554 c -7.91251,43.24991 -43.41646,103.3448 -74.95879,106.06683 l 0,-259.76665 -43.0612,0 0,259.76665 C 236.92707,430.37034 201.42312,370.2886 193.51061,327.02554 l -32.84492,15.63519 c 8.35387,57.79366 48.98211,111.49772 99.63285,125.08154 C 279.33158,472.84442 290,498.72335 290,498.72335 c 0,0 10.66842,-25.87893 29.70146,-30.98108 50.65074,-13.58382 91.27898,-67.28788 99.63285,-125.08154 z"
     id="path9"
     sodipodi:nodetypes="cccccccccccc" />
  <path
     style="fill:#000000;fill-opacity:1"
     d="m 236.17337,191.78912 107.65298,0 0,26.29974 -107.65298,0 z"
     id="rect11" />
</svg>

<svg width="580" height="580" viewBox="0 0 580 580" fill="none" xmlns="http://www.w3.org/2000/svg">
<path opacity="0.617391" d="M479.66 290C479.66 356.799 459.678 420.862 424.11 468.096C388.542 515.33 340.301 541.866 290 541.866C239.699 541.866 191.458 515.33 155.89 468.096C120.322 420.862 100.34 356.799 100.34 290C100.34 223.201 120.322 159.138 155.89 111.904C191.458 64.6701 239.699 38.1343 290 38.1343C340.301 38.1343 388.542 64.6701 424.11 111.904C459.678 159.138 479.66 223.201 479.66 290V290Z" fill="#FEFEFE"/>
<path d="M479.66 290C479.66 356.799 459.678 420.862 424.11 468.096C388.542 515.33 340.301 541.866 290 541.866C239.699 541.866 191.458 515.33 155.89 468.096C120.322 420.862 100.34 356.799 100.34 290C100.34 223.201 120.322 159.138 155.89 111.904C191.458 64.6701 239.699 38.1343 290 38.1343C340.301 38.1343 388.542 64.6701 424.11 111.904C459.678 159.138 479.66 223.201 479.66 290V290Z" stroke="#124DC8" stroke-width="27.0428" stroke-linecap="round"/>
<path d="M290 81.2766C261.106 81.2766 237.401 104.982 237.401 133.876C237.401 162.77 261.106 186.476 290 186.476C318.894 186.476 342.599 162.77 342.599 133.876C342.599 104.982 318.894 81.2766 290 81.2766V81.2766ZM290 107.576C304.681 107.576 316.3 119.195 316.3 133.876C316.3 148.557 304.681 160.176 290 160.176C275.319 160.176 263.7 148.557 263.7 133.876C263.7 119.195 275.319 107.576 290 107.576V107.576Z" fill="black"/>
<path d="M358.629 356.531C358.629 356.531 380.515 317.528 409.786 307.679C428.496 334.492 429.949 366.512 429.949 382.292C429.949 382.292 412.638 374.231 398.999 352.152C388.395 359.45 358.629 356.531 358.629 356.531V356.531Z" fill="black"/>
<path d="M221.371 356.531C221.371 356.531 200.53 318.172 171.259 308.323C152.979 327.614 150.051 382.291 150.051 382.291C150.051 382.291 167.997 371.416 181.001 352.152C191.605 359.45 221.371 356.531 221.371 356.531Z" fill="black"/>
<path d="M386.489 327.026C378.577 370.275 343.073 430.37 311.531 433.092V173.326H268.469V433.092C236.927 430.37 201.423 370.289 193.511 327.026L160.666 342.661C169.02 400.454 209.648 454.158 260.299 467.742C279.332 472.844 290 498.723 290 498.723C290 498.723 300.668 472.844 319.701 467.742C370.352 454.158 410.98 400.454 419.334 342.661L386.489 327.026Z" fill="black"/>
<path d="M236.173 191.789H343.826V218.089H236.173V191.789Z" fill="black"/>
</svg>
